;generated by ffslicer 2.1.0 09/13/21 11:15:37
;machine_type: Creator Pro 2
;right_extruder_material: PLA
;left_extruder_material: PLA
;filament_diameter0: 1.75
;filament_diameter1: 1.75
;layer_height: 0.18
;perimeter_shells: 2
;top_solid_layers: 3
;bottom_solid_layers: 3
;fill_density: 15%
;fill_pattern: hexagon
;base_print_speed: 60
;travel_speed: 100
;right_extruder_temperature: 210
;left_extruder_temperature: 210
;platform_temperature: 40
;right_extruder_temperature_raft0: 0
;left_extruder_temperature_raft0: 0
;right_extruder_temperature_reset: 
;left_extruder_temperature_reset: 
;start gcode
M118 X28.10 Y69.96 Z5.10 T0
M140 S40 T0
M104 S210 T0
M104 S0 T1
M107
G90
G28
M132 X Y Z A B
G1 Z50.000 F420
G161 X Y F3300
M7 T0
M6 T0
M651 S255
;layer_count: 27
M108 T0
G1 X22.33 Y-57.01 F6000
;preExtrude:0.20
G1 Z.200 F420
;structure:pre-extrude
G1 X22.33 Y-57.01 F6000
G1 X23.41 Y-55.80 E.2352 F1200
G1 X25.40 Y-54.41 E.5872
G1 X26.95 Y-52.42 E.9530
G1 X27.84 Y-50.19 E1.3012
G1 X28.10 Y-48.27 E1.5821
G1 X28.10 Y-29.25 E4.3403
G1 X27.73 Y-26.98 E4.6738
G1 X26.68 Y-24.70 E5.0378
G1 X24.99 Y-22.79 E5.4077
G1 X24.22 Y-22.32 E5.5385
G1 X16.79 Y-12.38 E7.3381
G1 X16.38 Y-11.03 E7.5427
G1 X15.73 Y-10.09 E7.7085
G1 X14.11 Y-8.51 E8.0366
G1 X11.05 Y-6.73 E8.5500
G1 X8.81 Y-6.09 E8.8878
G1 X7.71 Y-6.12 E9.0474
G1 X-7.59 Y-.82 E11.3954
G1 X-7.77 Y-.61 E11.4356
G1 X-9.22 Y.29 E11.6830
G1 X-11.37 Y.89 E12.0067
G1 X-12.80 Y.83 E12.2143
G1 X-15.00 Y.22 E12.5453
G1 X-18.08 Y-1.55 E13.0605
G1 X-19.75 Y-3.17 E13.3979
G1 X-20.69 Y-4.90 E13.6834
G1 X-20.88 Y-5.52 E13.7774
G1 X-21.08 Y-7.71 E14.0963
G1 X-21.07 Y-7.80 E14.1095
G1 X-26.27 Y-24.26 E16.6127
G1 X-26.78 Y-24.85 E16.7258
G1 X-27.77 Y-27.10 E17.0822
G1 X-28.10 Y-29.29 E17.4034
;raft
;layer:0.28
;support-start
G1 E14.7034 F2100
G1 Z.280 F420
G1 X-27.10 Y-29.36 F4200
G1 E17.4034 F2100
;structure:brim
;extrude_ratio:1.05505
G1 X-27.10 Y-29.36 F4200
G1 X-27.10 Y-39.36 E17.9389 F600
G1 X-27.10 Y-48.23 E18.4139
G1 X-26.91 Y-49.35 E18.4747
G1 X-26.73 Y-50.39 E18.5312
G1 X-25.77 Y-52.41 E18.6510
G1 X-24.24 Y-54.07 E18.7719
G1 X-22.33 Y-55.20 E18.8907
G1 X-20.17 Y-55.74 E19.0099
G1 X-18.83 Y-55.77 E19.0817
G1 X-18.09 Y-57.44 E19.1795
G1 X-17.16 Y-58.49 E19.2546
G1 X-15.49 Y-59.52 E19.3597
G1 X-14.44 Y-59.78 E19.4176
G1 X-14.40 Y-62.17 E19.5456
G1 X-14.38 Y-63.07 E19.5938
G1 X-13.83 Y-65.27 E19.7153
G1 X-12.66 Y-67.19 E19.8357
G1 X-11.00 Y-68.68 E19.9551
G1 X-9.03 Y-69.61 E20.0718
G1 X-7.04 Y-69.96 E20.1800
G1 X-3.14 Y-69.89 E20.3888
G1 X-1.04 Y-69.37 E20.5047
G1 X-.04 Y-68.84 E20.5653
G1 X1.91 Y-69.68 E20.6790
G1 X3.63 Y-69.96 E20.7723
G1 X6.85 Y-69.96 E20.9447
G1 X8.93 Y-69.63 E21.0575
G1 X10.97 Y-68.70 E21.1776
G1 X12.66 Y-67.20 E21.2986
G1 X12.74 Y-67.11 E21.3050
G1 X13.87 Y-65.18 E21.4248
G1 X13.93 Y-65.00 E21.4349
G1 X14.43 Y-62.68 E21.5620
G1 X14.45 Y-59.82 E21.7152
G1 X14.60 Y-59.78 E21.7235
G1 X16.40 Y-59.07 E21.8271
G1 X17.60 Y-58.04 E21.9118
G1 X18.70 Y-56.24 E22.0248
G1 X18.84 Y-55.75 E22.0520
G1 X20.64 Y-55.67 E22.1485
G1 X22.85 Y-54.97 E22.2727
G1 X24.70 Y-53.67 E22.3937
G1 X26.08 Y-51.92 E22.5131
G1 X26.86 Y-49.94 E22.6270
G1 X27.10 Y-48.20 E22.7211
G1 X27.10 Y-29.33 E23.7316
G1 X26.76 Y-27.28 E23.8428
G1 X25.84 Y-25.25 E23.9622
G1 X24.34 Y-23.57 E24.0828
G1 X22.44 Y-22.41 E24.2020
G1 X20.26 Y-21.83 E24.3228
G1 X17.05 Y-21.80 E24.4947
G1 X16.32 Y-20.49 E24.5750
G1 X15.16 Y-18.86 E24.6821
G1 X14.60 Y-18.22 E24.7277
G1 X15.69 Y-16.18 E24.8515
G1 X16.12 Y-14.13 E24.9637
G1 X16.03 Y-13.33 E25.0068
G1 X15.47 Y-11.47 E25.1108
G1 X14.96 Y-10.74 E25.1585
G1 X13.50 Y-9.31 E25.2679
G1 X10.65 Y-7.66 E25.4443
G1 X8.69 Y-7.09 E25.5536
G1 X6.89 Y-7.15 E25.6500
G1 X6.19 Y-7.35 E25.6890
G1 X4.43 Y-8.31 E25.7964
G1 X3.23 Y-9.62 E25.8915
G1 X2.04 Y-11.64 E26.0170
G1 X1.65 Y-11.59 E26.0381
G1 X-.27 Y-11.53 E26.1410
G1 X-2.03 Y-11.64 E26.2354
G1 X-7.13 Y-2.83 E26.7805
G1 X-8.42 Y-1.39 E26.8840
G1 X-9.63 Y-.64 E26.9603
G1 X-11.49 Y-.12 E27.0637
G1 X-12.64 Y-.16 E27.1253
G1 X-14.61 Y-.71 E27.2348
G1 X-17.47 Y-2.36 E27.4116
G1 X-18.95 Y-3.78 E27.5215
G1 X-19.76 Y-5.28 E27.6127
G1 X-19.89 Y-5.71 E27.6368
G1 X-20.07 Y-7.68 E27.7427
G1 X-20.02 Y-8.02 E27.7611
G1 X-19.52 Y-9.72 E27.8560
G1 X-19.41 Y-9.94 E27.8692
G1 X-14.63 Y-18.21 E28.3807
G1 X-15.91 Y-19.86 E28.4925
G1 X-16.95 Y-21.56 E28.5992
G1 X-17.06 Y-21.77 E28.6119
G1 X-20.39 Y-21.85 E28.7903
G1 X-22.57 Y-22.46 E28.9115
G1 X-24.47 Y-23.68 E29.0324
G1 X-25.92 Y-25.38 E29.1521
G1 X-26.80 Y-27.39 E29.2696
G1 X-27.10 Y-29.36 E29.3763
;extrude_ratio:1
G1 E26.6763 F2100
G1 X-27.10 Y-29.36 F4200
G1 E29.3763 F2100
;extrude_ratio:1.05505
G1 X-27.10 Y-29.36 F4200
G1 X-27.10 Y-48.23 E30.3868 F600
G1 X-26.73 Y-50.39 E30.5041
G1 X-25.77 Y-52.41 E30.6239
G1 X-24.24 Y-54.07 E30.7448
G1 X-22.33 Y-55.20 E30.8636
G1 X-20.17 Y-55.74 E30.9828
G1 X-18.83 Y-55.77 E31.0546
G1 X-18.09 Y-57.44 E31.1524
G1 X-17.16 Y-58.49 E31.2275
G1 X-15.49 Y-59.52 E31.3326
G1 X-14.44 Y-59.78 E31.3905
G1 X-14.38 Y-63.07 E31.5667
G1 X-13.83 Y-65.27 E31.6881
G1 X-12.66 Y-67.19 E31.8085
G1 X-11.00 Y-68.68 E31.9280
G1 X-9.03 Y-69.61 E32.0446
G1 X-7.04 Y-69.96 E32.1528
G1 X-3.14 Y-69.89 E32.3617
G1 X-1.04 Y-69.37 E32.4776
G1 X-.04 Y-68.84 E32.5382
G1 X1.91 Y-69.68 E32.6519
G1 X3.63 Y-69.96 E32.7452
G1 X6.85 Y-69.96 E32.9176
G1 X8.93 Y-69.63 E33.0304
G1 X10.97 Y-68.70 E33.1504
G1 X12.66 Y-67.20 E33.2714
G1 X12.74 Y-67.11 E33.2779
G1 X13.87 Y-65.18 E33.3977
G1 X13.93 Y-65.00 E33.4078
G1 X14.43 Y-62.68 E33.5349
G1 X14.45 Y-59.82 E33.6881
G1 X14.60 Y-59.78 E33.6964
G1 X16.40 Y-59.07 E33.8000
G1 X17.60 Y-58.04 E33.8847
G1 X18.70 Y-56.24 E33.9976
G1 X18.84 Y-55.75 E34.0249
G1 X20.64 Y-55.67 E34.1214
G1 X22.85 Y-54.97 E34.2455
G1 X24.70 Y-53.67 E34.3666
G1 X26.08 Y-51.92 E34.4860
G1 X26.86 Y-49.94 E34.5999
G1 X27.10 Y-48.20 E34.6940
G1 X27.10 Y-29.33 E35.7044
G1 X26.76 Y-27.28 E35.8157
G1 X25.84 Y-25.25 E35.9351
G1 X24.34 Y-23.57 E36.0557
G1 X22.44 Y-22.41 E36.1749
G1 X20.26 Y-21.83 E36.2957
G1 X17.05 Y-21.80 E36.4676
G1 X16.32 Y-20.49 E36.5479
G1 X15.16 Y-18.86 E36.6550
G1 X14.60 Y-18.22 E36.7005
G1 X15.69 Y-16.18 E36.8244
G1 X16.12 Y-14.13 E36.9366
G1 X16.03 Y-13.33 E36.9797
G1 X15.47 Y-11.47 E37.0837
G1 X14.96 Y-10.74 E37.1314
G1 X13.50 Y-9.31 E37.2408
G1 X10.65 Y-7.66 E37.4171
G1 X8.69 Y-7.09 E37.5264
G1 X6.89 Y-7.15 E37.6229
G1 X6.19 Y-7.35 E37.6619
G1 X4.43 Y-8.31 E37.7692
G1 X3.23 Y-9.62 E37.8644
G1 X2.04 Y-11.64 E37.9899
G1 X1.65 Y-11.59 E38.0110
G1 X-.27 Y-11.53 E38.1138
G1 X-2.03 Y-11.64 E38.2082
G1 X-7.13 Y-2.83 E38.7534
G1 X-8.42 Y-1.39 E38.8569
G1 X-9.63 Y-.64 E38.9331
G1 X-11.49 Y-.12 E39.0365
G1 X-12.64 Y-.16 E39.0982
G1 X-14.61 Y-.71 E39.2077
G1 X-17.47 Y-2.36 E39.3845
G1 X-18.95 Y-3.78 E39.4943
G1 X-19.76 Y-5.28 E39.5856
G1 X-19.89 Y-5.71 E39.6097
G1 X-20.07 Y-7.68 E39.7156
G1 X-20.02 Y-8.02 E39.7340
G1 X-19.52 Y-9.72 E39.8289
G1 X-19.41 Y-9.94 E39.8421
G1 X-14.63 Y-18.21 E40.3536
G1 X-15.91 Y-19.86 E40.4654
G1 X-16.95 Y-21.56 E40.5721
G1 X-17.06 Y-21.77 E40.5848
G1 X-20.39 Y-21.85 E40.7632
G1 X-22.57 Y-22.46 E40.8844
G1 X-24.47 Y-23.68 E41.0053
G1 X-25.92 Y-25.38 E41.1249
G1 X-26.80 Y-27.39 E41.2424
G1 X-27.10 Y-29.36 E41.3491
;extrude_ratio:1
G1 E38.6491 F2100
G1 X-26.70 Y-29.36 F4200
G1 E41.3491 F2100
;extrude_ratio:1.05505
G1 X-26.70 Y-29.36 F4200
G1 X-26.70 Y-48.23 E42.3596 F600
G1 X-26.34 Y-50.32 E42.4732
G1 X-25.41 Y-52.24 E42.5874
G1 X-23.95 Y-53.80 E42.7018
G1 X-22.13 Y-54.86 E42.8146
G1 X-20.07 Y-55.35 E42.9280
G1 X-18.53 Y-55.37 E43.0105
G1 X-18.50 Y-55.52 E43.0187
G1 X-17.73 Y-57.28 E43.1215
G1 X-16.87 Y-58.22 E43.1898
G1 X-15.28 Y-59.18 E43.2892
G1 X-14.04 Y-59.47 E43.3574
G1 X-14.00 Y-62.98 E43.5454
G1 X-13.49 Y-65.06 E43.6600
G1 X-12.39 Y-66.89 E43.7744
G1 X-10.83 Y-68.32 E43.8877
G1 X-8.96 Y-69.21 E43.9986
G1 X-7.05 Y-69.56 E44.1026
G1 X-3.15 Y-69.49 E44.3115
G1 X-1.14 Y-68.99 E44.4224
G1 X-.04 Y-68.36 E44.4903
G1 X.12 Y-68.47 E44.5007
G1 X1.97 Y-69.28 E44.6088
G1 X3.63 Y-69.56 E44.6989
G1 X6.85 Y-69.56 E44.8714
G1 X8.87 Y-69.23 E44.9810
G1 X10.80 Y-68.34 E45.0948
G1 X12.39 Y-66.90 E45.2097
G1 X13.49 Y-65.03 E45.3258
G1 X13.54 Y-64.92 E45.3323
G1 X14.03 Y-62.68 E45.4551
G1 X14.05 Y-59.46 E45.6275
G1 X14.45 Y-59.41 E45.6491
G1 X16.25 Y-58.69 E45.7529
G1 X17.34 Y-57.74 E45.8303
G1 X18.36 Y-56.03 E45.9370
G1 X18.51 Y-55.36 E45.9737
G1 X20.52 Y-55.29 E46.0814
G1 X22.63 Y-54.64 E46.1997
G1 X24.39 Y-53.43 E46.3140
G1 X25.71 Y-51.77 E46.4276
G1 X26.47 Y-49.88 E46.5367
G1 X26.70 Y-48.20 E46.6275
G1 X26.70 Y-29.33 E47.6379
G1 X26.37 Y-27.34 E47.7460
G1 X25.47 Y-25.42 E47.8595
G1 X24.04 Y-23.84 E47.9736
G1 X22.24 Y-22.75 E48.0863
G1 X20.16 Y-22.22 E48.2012
G1 X16.81 Y-22.20 E48.3806
G1 X16.00 Y-20.72 E48.4710
G1 X14.86 Y-19.12 E48.5762
G1 X14.12 Y-18.28 E48.6361
G1 X15.30 Y-16.09 E48.7693
G1 X15.72 Y-14.17 E48.8746
G1 X15.65 Y-13.45 E48.9133
G1 X15.14 Y-11.70 E49.0109
G1 X14.68 Y-11.02 E49.0549
G1 X13.30 Y-9.66 E49.1586
G1 X10.45 Y-8.00 E49.3353
G1 X8.58 Y-7.48 E49.4392
G1 X6.90 Y-7.55 E49.5292
G1 X6.38 Y-7.70 E49.5582
G1 X4.72 Y-8.59 E49.6591
G1 X3.57 Y-9.82 E49.7492
G1 X2.25 Y-12.07 E49.8889
G1 X1.64 Y-11.99 E49.9219
G1 X-.25 Y-11.93 E50.0231
G1 X-2.26 Y-12.06 E50.1310
G1 X-7.47 Y-3.03 E50.6892
G1 X-8.72 Y-1.66 E50.7886
G1 X-9.83 Y-.98 E50.8583
G1 X-11.59 Y-.50 E50.9559
G1 X-12.53 Y-.55 E51.0064
G1 X-14.41 Y-1.06 E51.1107
G1 X-17.27 Y-2.70 E51.2872
G1 X-18.67 Y-4.07 E51.3921
G1 X-19.41 Y-5.47 E51.4769
G1 X-19.49 Y-5.75 E51.4925
G1 X-19.68 Y-7.63 E51.5937
G1 X-19.64 Y-7.91 E51.6088
G1 X-19.16 Y-9.54 E51.6998
G1 X-19.06 Y-9.73 E51.7113
G1 X-14.13 Y-18.27 E52.2393
G1 X-14.38 Y-18.53 E52.2587
G1 X-15.57 Y-20.07 E52.3629
G1 X-16.59 Y-21.73 E52.4672
G1 X-16.80 Y-22.17 E52.4933
G1 X-20.29 Y-22.24 E52.6802
G1 X-22.35 Y-22.80 E52.7946
G1 X-24.16 Y-23.94 E52.9091
G1 X-25.55 Y-25.55 E53.0230
G1 X-26.40 Y-27.45 E53.1345
G1 X-26.70 Y-29.36 E53.2380
;extrude_ratio:1
G1 E50.5380 F2100
G1 X-26.30 Y-29.36 F4200
G1 E53.2380 F2100
;extrude_ratio:1.05505
G1 X-26.30 Y-29.36 F4200
G1 X-26.30 Y-48.23 E54.2485 F600
G1 X-25.97 Y-50.15 E54.3528
G1 X-25.11 Y-51.97 E54.4606
G1 X-23.75 Y-53.46 E54.5686
G1 X-22.03 Y-54.47 E54.6754
G1 X-20.07 Y-54.95 E54.7835
G1 X-18.19 Y-54.98 E54.8841
G1 X-18.13 Y-55.36 E54.9048
G1 X-17.43 Y-57.02 E55.0012
G1 X-16.66 Y-57.87 E55.0626
G1 X-15.08 Y-58.84 E55.1619
G1 X-13.65 Y-59.14 E55.2402
G1 X-13.61 Y-62.88 E55.4404
G1 X-13.10 Y-64.96 E55.5551
G1 X-12.05 Y-66.69 E55.6635
G1 X-10.56 Y-68.02 E55.7704
G1 X-8.79 Y-68.85 E55.8751
G1 X-7.05 Y-69.16 E55.9698
G1 X-3.25 Y-69.10 E56.1733
G1 X-1.34 Y-68.64 E56.2785
G1 X-.01 Y-67.88 E56.3605
G1 X.28 Y-68.10 E56.3800
G1 X2.04 Y-68.89 E56.4833
G1 X3.63 Y-69.16 E56.5697
G1 X6.85 Y-69.16 E56.7421
G1 X8.80 Y-68.84 E56.8479
G1 X10.63 Y-67.98 E56.9562
G1 X12.12 Y-66.61 E57.0646
G1 X13.15 Y-64.83 E57.1747
G1 X13.63 Y-62.68 E57.2927
G1 X13.65 Y-59.10 E57.4844
G1 X14.31 Y-59.04 E57.5199
G1 X15.99 Y-58.39 E57.6163
G1 X17.00 Y-57.53 E57.6874
G1 X17.97 Y-55.95 E57.7866
G1 X18.19 Y-54.97 E57.8404
G1 X20.41 Y-54.90 E57.9593
G1 X22.40 Y-54.30 E58.0707
G1 X24.08 Y-53.17 E58.1791
G1 X25.34 Y-51.62 E58.2860
G1 X26.07 Y-49.83 E58.3895
G1 X26.30 Y-48.20 E58.4777
G1 X26.30 Y-29.33 E59.4882
G1 X25.97 Y-27.41 E59.5925
G1 X25.11 Y-25.59 E59.7003
G1 X23.75 Y-24.11 E59.8079
G1 X22.03 Y-23.09 E59.9150
G1 X20.06 Y-22.61 E60.0236
G1 X16.58 Y-22.60 E60.2099
G1 X15.67 Y-20.95 E60.3108
G1 X14.57 Y-19.39 E60.4130
G1 X13.63 Y-18.33 E60.4889
G1 X14.91 Y-16.00 E60.6313
G1 X15.32 Y-14.20 E60.7301
G1 X15.27 Y-13.55 E60.7650
G1 X14.81 Y-11.92 E60.8557
G1 X14.40 Y-11.31 E60.8951
G1 X13.10 Y-10.00 E60.9939
G1 X10.25 Y-8.35 E61.1703
G1 X8.47 Y-7.86 E61.2691
G1 X6.93 Y-7.95 E61.3517
G1 X6.56 Y-8.06 E61.3724
G1 X5.01 Y-8.86 E61.4658
G1 X3.92 Y-10.02 E61.5510
G1 X2.46 Y-12.51 E61.7056
G1 X1.63 Y-12.39 E61.7505
G1 X-.22 Y-12.33 E61.8496
G1 X-2.09 Y-12.44 E61.9499
G1 X-2.46 Y-12.50 E61.9700
G1 X-7.82 Y-3.23 E62.5434
G1 X-9.01 Y-1.93 E62.6378
G1 X-10.04 Y-1.32 E62.7019
G1 X-11.69 Y-.89 E62.7932
G1 X-12.43 Y-.93 E62.8329
G1 X-14.21 Y-1.41 E62.9316
G1 X-17.08 Y-3.05 E63.1086
G1 X-18.39 Y-4.35 E63.2074
G1 X-19.05 Y-5.65 E63.2855
G1 X-19.09 Y-5.79 E63.2933
G1 X-19.28 Y-7.58 E63.3897
G1 X-19.25 Y-7.80 E63.4016
G1 X-18.80 Y-9.37 E63.4890
G1 X-18.72 Y-9.54 E63.4991
G1 X-13.64 Y-18.33 E64.0427
G1 X-14.06 Y-18.77 E64.0753
G1 X-15.23 Y-20.28 E64.1776
G1 X-16.23 Y-21.91 E64.2800
G1 X-16.55 Y-22.56 E64.3188
G1 X-20.18 Y-22.62 E64.5132
G1 X-22.14 Y-23.14 E64.6218
G1 X-23.86 Y-24.20 E64.7300
G1 X-25.19 Y-25.71 E64.8377
G1 X-26.01 Y-27.51 E64.9437
G1 X-26.30 Y-29.36 E65.0439
;extrude_ratio:1
G1 E62.3439 F2100
G1 X-25.90 Y-29.36 F4200
G1 E65.0439 F2100
;extrude_ratio:1.05505
G1 X-25.90 Y-29.36 F4200
G1 X-25.90 Y-48.23 E66.0544 F600
G1 X-25.58 Y-50.08 E66.1549
G1 X-24.75 Y-51.80 E66.2572
G1 X-23.46 Y-53.18 E66.3584
G1 X-21.83 Y-54.12 E66.4591
G1 X-19.97 Y-54.56 E66.5615
G1 X-17.83 Y-54.58 E66.6761
G1 X-17.76 Y-55.20 E66.7095
G1 X-17.06 Y-56.86 E66.8060
G1 X-16.37 Y-57.60 E66.8601
G1 X-14.87 Y-58.49 E66.9535
G1 X-13.50 Y-58.76 E67.0283
G1 X-13.25 Y-58.76 E67.0417
G1 X-13.22 Y-62.79 E67.2575
G1 X-12.75 Y-64.76 E67.3660
G1 X-11.78 Y-66.39 E67.4675
G1 X-10.39 Y-67.66 E67.5683
G1 X-8.72 Y-68.46 E67.6675
G1 X-7.06 Y-68.75 E67.7577
G1 X-3.25 Y-68.70 E67.9618
G1 X-1.44 Y-68.25 E68.0616
G1 X.02 Y-67.40 E68.1521
G1 X.45 Y-67.74 E68.1815
G1 X2.11 Y-68.49 E68.2790
G1 X3.63 Y-68.75 E68.3616
G1 X6.86 Y-68.76 E68.5345
G1 X8.74 Y-68.44 E68.6367
G1 X10.45 Y-67.62 E68.7382
G1 X11.85 Y-66.32 E68.8405
G1 X12.80 Y-64.63 E68.9443
G1 X13.24 Y-62.59 E69.0561
G1 X13.26 Y-58.73 E69.2628
G1 X14.16 Y-58.67 E69.3111
G1 X15.85 Y-58.02 E69.4081
G1 X16.73 Y-57.23 E69.4714
G1 X17.63 Y-55.74 E69.5646
G1 X17.87 Y-54.58 E69.6280
G1 X20.30 Y-54.52 E69.7582
G1 X22.18 Y-53.97 E69.8631
G1 X23.77 Y-52.92 E69.9651
G1 X24.97 Y-51.46 E70.0663
G1 X25.68 Y-49.77 E70.1645
G1 X25.90 Y-48.20 E70.2494
G1 X25.90 Y-29.33 E71.2598
G1 X25.58 Y-27.48 E71.3604
G1 X24.75 Y-25.77 E71.4622
G1 X23.46 Y-24.38 E71.5637
G1 X21.83 Y-23.44 E71.6645
G1 X19.97 Y-23.00 E71.7668
G1 X16.34 Y-23.00 E71.9612
G1 X15.34 Y-21.18 E72.0724
G1 X14.27 Y-19.65 E72.1724
G1 X13.14 Y-18.39 E72.2630
G1 X14.52 Y-15.91 E72.4150
G1 X14.92 Y-14.23 E72.5075
G1 X14.88 Y-13.66 E72.5381
G1 X14.47 Y-12.13 E72.6229
G1 X14.12 Y-11.59 E72.6573
G1 X12.90 Y-10.35 E72.7505
G1 X10.05 Y-8.70 E72.9268
G1 X8.37 Y-8.25 E73.0200
G1 X6.95 Y-8.35 E73.0962
G1 X6.74 Y-8.42 E73.1080
G1 X5.30 Y-9.14 E73.1943
G1 X4.26 Y-10.23 E73.2749
G1 X2.67 Y-12.94 E73.4432
G1 X1.61 Y-12.79 E73.5005
G1 X-.20 Y-12.72 E73.5975
G1 X-2.03 Y-12.83 E73.6957
G1 X-2.67 Y-12.94 E73.7304
G1 X-8.16 Y-3.43 E74.3185
G1 X-9.31 Y-2.20 E74.4086
G1 X-10.14 Y-1.71 E74.4602
G1 X-11.68 Y-1.29 E74.5457
G1 X-12.33 Y-1.32 E74.5806
G1 X-14.02 Y-1.76 E74.6741
G1 X-16.88 Y-3.40 E74.8506
G1 X-18.10 Y-4.64 E74.9438
G1 X-18.69 Y-5.83 E75.0149
G1 X-18.88 Y-7.55 E75.1075
G1 X-18.87 Y-7.69 E75.1151
G1 X-18.44 Y-9.19 E75.1986
G1 X-18.37 Y-9.34 E75.2075
G1 X-13.14 Y-18.40 E75.7677
G1 X-13.74 Y-19.02 E75.8139
G1 X-14.89 Y-20.49 E75.9138
G1 X-15.87 Y-22.08 E76.0138
G1 X-16.31 Y-22.99 E76.0680
G1 X-16.53 Y-22.96 E76.0799
G1 X-20.08 Y-23.01 E76.2700
G1 X-21.94 Y-23.48 E76.3727
G1 X-23.57 Y-24.47 E76.4748
G1 X-24.83 Y-25.88 E76.5761
G1 X-25.61 Y-27.57 E76.6758
G1 X-25.90 Y-29.36 E76.7729
;extrude_ratio:1
G1 E74.0729 F2100
G1 X-25.50 Y-29.36 F4200
G1 E76.7729 F2100
;extrude_ratio:1.05505
G1 X-25.50 Y-29.36 F4200
G1 X-25.50 Y-48.23 E77.7833 F600
G1 X-25.19 Y-50.01 E77.8801
G1 X-24.39 Y-51.62 E77.9764
G1 X-23.17 Y-52.91 E78.0714
G1 X-21.63 Y-53.77 E78.1659
G1 X-19.88 Y-54.17 E78.2620
G1 X-17.46 Y-54.18 E78.3916
G1 X-17.39 Y-55.05 E78.4383
G1 X-16.77 Y-56.59 E78.5272
G1 X-16.16 Y-57.26 E78.5758
G1 X-14.79 Y-58.10 E78.6618
G1 X-13.50 Y-58.36 E78.7323
G1 X-12.85 Y-58.36 E78.7671
G1 X-12.83 Y-62.70 E78.9995
G1 X-12.41 Y-64.56 E79.1016
G1 X-11.51 Y-66.10 E79.1971
G1 X-10.21 Y-67.30 E79.2919
G1 X-8.65 Y-68.06 E79.3848
G1 X-7.06 Y-68.36 E79.4714
G1 X-3.34 Y-68.31 E79.6706
G1 X-1.64 Y-67.90 E79.7643
G1 X-.12 Y-67.02 E79.8583
G1 X.03 Y-66.88 E79.8693
G1 X.62 Y-67.38 E79.9107
G1 X2.18 Y-68.10 E80.0027
G1 X3.63 Y-68.36 E80.0816
